X:1
T:Title
%%score { 1 | 2 }
L:1/8
Q:1/4=108
M:3/4
K:Ab
V:1 treble nm="Grand Piano"
V:2 bass 
V:1
 [CE]3 [DF] [CE]2 | [Ec]3 [DB] [CA]2 | B2 F2 G2 | [CA]4 z2 | [FA]2 [EG]2 [DF]2 | %5
w: H.~P.~Danks * *|||||
 [CE]2 [CA]2 [EA]2 | [=DA]2 [DG]2 [DA]2 | [EB]4 z2 | [Ec]2 [Ec]2 [Ec]2 | [=Ec]3 [Ec] [Ec]2 | %10
w: |||||
 [Fc]2 [Fc]2 [_Gc]2 | [Fd]6 | [Fd]2 [Fc]2 [FB]2 | A2 G2 F2 | E2 F2 G2 |[M:2/4] [A,CA]4 | %16
w: ||||||
[M:1/4] A2 |[M:3/4] d2 F2 [Fd]2 | [Ec]4 [CA]2 | [DB]2 [DA]2 [DF]2 | [CE]4 [CE]2 | F2 F2 F2 | %22
w: ||||||
 E2 A2 c2 | B2 F2 G2 | [CA]6 |] %25
w: |||
V:2
 [A,,A,]3 [A,,A,] [A,,A,]2 | [A,,A,]3 [A,,A,] [A,,A,]2 | [E,G,D]2 [E,A,D]2 [E,B,D]2 | [A,,A,]4 z2 | %4
 [D,A,]2 [D,A,]2 [D,A,]2 | [A,,A,]2 [A,,A,]2 [C,A,]2 | [F,A,]2 [B,,B,]2 [B,,A,]2 | [E,G,]4 z2 | %8
 [A,,A,]2 [A,,A,]2 [A,,A,]2 | [C,G,]3 [C,G,] [C,G,]2 | [F,A,]2 [F,A,]2 [E,A,]2 | [D,A,]6 | %12
 [B,,B,]2 [C,A,]2 [D,B,]2 | [E,CE]2 [E,B,D]2 [E,A,D]2 | [E,G,D]2 [E,A,D]2 [E,B,D]2 |[M:2/4] A,,4 | %16
[M:1/4][K:treble] C2 |[M:3/4] F2 D2[K:bass] [A,,A,]2 | [A,,A,]2 [A,,A,]2 [A,,A,]2 | %19
 [D,F,]4 [D,A,]2 | [A,,A,]2 [A,,A,]2 [A,,A,]2 | [D,A,D]2 [D,A,D]2 [D,A,D]2 | %22
 [E,A,C]2 [E,A,C]2 [E,A,E]2 | [E,G,D]2 [E,A,D]2 [E,B,D]2 | [A,,A,]6 |] %25

